X:40
T:Glanbran
M:2/4
L:1/8
Q:220
S:Cadw Twmpath Collection
R:Polka
A:Wales
Z:brian_martin12345@yahoo.com
K:G
G/A/ |\
B>A Bd | G>A BG | {EG}c2 {DG}B2 | {DF}AA/B/ cA |
B>A Bd | G>A BG | Ad FA | G3 :|
G |\
FF/A/ GG/B/ | Ac BA | GG/B/ AA/c/ | Bd BA |
B>A Bd | G>A BG | Ad FA | G3 :|
